X:11
T:Sweets of May
M:6/8
L:1/8
R:Jig
Z:Steve Mansfield 1998
K:D
ag | f2d ecA | ded dag | f2d def | g3 gag | f2d ecA | ded dag | 
f2d ecA |1 d3 d :|2 d3 d3 |: efe e2d | B2c d3 | efe g2a | b2a g2f |
efe e2d | B2c d3 | efe f2 d |1 e3 e3 :|2 e3 efg |: afd afd | 
A3 A3 | ge=c ge=c | A3 ABc |d2A d2e | f2d f2g | a2a gfe | d3 d3 :|

